icons/svg/calendar-select.svg

﻿<?xml version="1.0" encoding="utf-8"?>
<!DOCTYPE svg PUBLIC "-//W3C//DTD SVG 1.1//EN" "http://www.w3.org/Graphics/SVG/1.1/DTD/svg11.dtd">
<svg xmlns="http://www.w3.org/2000/svg" xmlns:xlink="http://www.w3.org/1999/xlink" version="1.1" baseProfile="full" width="24" height="24" viewBox="0 0 24.00 24.00" enable-background="new 0 0 24.00 24.00" xml:space="preserve">
	<path fill="#000000" fill-opacity="1" stroke-width="0.2" stroke-linejoin="round" d="M 11,12L 17,12L 17,18L 11,18L 11,12 Z M 5,4L 6,4L 6,2.00001L 8,2.00001L 8,4L 16,4L 16,2.00001L 18,2.00001L 18,4L 19,4C 20.1046,4 21,4.89543 21,6L 21,20C 21,21.1046 20.1046,22 19,22L 5,22C 3.89543,22 3,21.1046 3,20L 3,6C 3,4.89543 3.89543,4 5,4 Z M 5,9L 5,20L 19,20L 19,9L 5,9 Z M 13,14L 13,16L 15,16L 15,14L 13,14 Z "/>
</svg>

<svg xmlns="http://www.w3.org/2000/svg" version="1.1" baseProfile="full" width="24" height="24" viewBox="0 0 24.00 24.00" xml:space="preserve"><path fill="#000" fill-opacity="1" stroke-width=".2" stroke-linejoin="round" d="M11 12h6v6h-6v-6zM5 4h1V2h2v2h8V2h2v2h1c1.105 0 2 .895 2 2v14c0 1.105-.895 2-2 2H5c-1.105 0-2-.895-2-2V6c0-1.105.895-2 2-2zm0 5v11h14V9H5zm8 5v2h2v-2h-2z"/></svg>
